X:33
T:Jigs simple chords 13
M:3/4
L:1/8
K:Em
B/A/[G3G,3B,3D3] g2 | e[dGB,D] BG AF | D2<[G2G,2B,2D2] g2 | e[dG,B,D] BG A2 | B2<[G2E,2G,2B,2] g2 |
e[dG,B,D] BG GA | B[cC,E,G,] de dc | B[cDFA,C] BA G2 | B/A/[G3G,3B,3D3] g2 |
e[dGB,D] BG AF | D2<[G2G,2B,2D2] g2 | e[dG,B,D] BG A2 | B2<[G2E,2G,2B,2] g2 |
e[dG,B,D] BG GA | B[cC,E,G,] de dc | B[cDFA,C] BA G2 | B[eE,G,B,] Be gb |
g[eE,G,B,] Be gb | g[eE,G,B,] Be g2 | a[bA,CE] ag ag | f[eE,G,B,] Be gb |
g[eE,G,B,] Be g2 | a[bACE] ag ag | f2<[e2E,2G,2B,2] e2 | B[eE,G,B,] Be gb |
g[eE,G,B,] Be gb | g[eE,G,B,] Be g2 | a[bA,CE] ag ag | f[eE,G,B,] Be gb |
g[eE,G,B,] Be g2 | a[bACE] ag ag | f2<[e2E,2G,2B,2] d2 |


